X:1
T:Tenebrae factae sunt - Ingegneri
T:#
%%score [ 1 2 3 4 ]
L:1/8
Q:1/4=160
M:3/2
K:A
V:1 treble nm="Soprano"
V:2 treble nm="Alto"
V:3 treble-8 nm="Tenor"
V:4 bass nm="Bass"
V:1
"^Tenebrae factae sunt""^Marco Antonio Ingegneri\n(1547-92)" A6 G2 G4 | F6 F2 ^E4 || F8 A4 =E2 F2 | %3
w: Te- ne- brae|fac- tae sunt,|dum cru- ci- fi-|
 =G8 D8 | (F8 =G8) | F4 F4 ^E8 | F8 z4 F4 | F4 F4 F4 F4 | =G8 F8- | F8 z8 | z8 F8- | F4 ^G4 A4 B4 | %12
w: xis- sent|Je\- *|sum Ju- dae-|i: et|cir- ca ho- ram|no- nam,||ex\-|* cla- ma- vit|
 c8 F4 B4- | B4 d8 c4 | d8 z4 B4- | B4 B4 B8- | B8 ^A8- | A8 z4 B4 | =A4 A8 A4 | A4 A4 =G8 | F16 || %21
w: Je- sus vo\-|* ce ma-|gna: De\-|* us me\-|* us,|* ut|quid me de-|re- li- qui-|sti?|
 z16 | F12 B4- | B4 A4 d8 | c8 A8 | B8 (c6 Bc | d4 c2 B2 d8) | c16 | z8 d8- | d8 c8 | z8 =A8 | %31
w: |Ex- cla\-|* mans Je-|sus vo-|ce ma\- * *||gna,|a\-|* it:|Pa-|
 A4 A4 A4 G4 | (A4 F4) E8 | z4 G4 B4 G4 | G12 A4 | A8 d8 | c16 || c8 c4 B4 | A4 G4 F8- | F4 E4 E8 | %40
w: ter, in ma- nus|tu\- * as|com- men- do|spi- ri-|tum me-|um.|Et in- cli-|na- to ca\-|* pi- te|
 z4[Q:1/4=158] F4[Q:1/4=156] F4[Q:1/4=154] E4 |[Q:1/4=149] D12[Q:1/4=145] D4 |[Q:1/4=144] C16 |] %43
w: e- mi- sit|spi- ri-|tum.|
V:2
 E6 E2 E4 | C6 C2 C4 || B,4 D4 A,2 B,2 C4 | B,16 | (A,8 E8) | C4 C4 C8 | C8 z4 C4 | C4 C4 C4 C4 | %8
w: Te- ne- brae|fac- tae sunt,|dum cru- ci- fi- xis-|sent|Je\- *|sum Ju- dae-|i: et|cir- ca ho- ram|
 E8 A,8 | A12 =G4 | F4 E4 D4 C4 | (F12 E2 D2 | C8) B,4 F4- | F4 F4 A8 | A8 z4 =G4- | %15
w: no- nam,|ex- cla-|ma- vit Je- sus,|Je\- * *|* sus vo\-|* ce ma-|gna: De\-|
 G4 !courtesy!=G4 (G6 FE | D4 E4) F8- | F8 z4 F4 | F4 E8 F4 | E4 F4 (B,4 C4) | D16 || F12 B4- | %22
w: * us me\- * *|* * us,|* ut|quid me de-|re- li- qui\- *|sti?|Ex- cla\-|
 B4 A4 d8 | c8 F4 G4 | (A6 B2 c2 Bc d4- | d2 c2 B8) A4 | F4 G4 (A2 F2 B4- | B4 ^A2 G2) A8 | %28
w: * mans Je-|sus vo- ce|ma\- * * * * *|* * * gna,|vo- ce ma\- * *|* * * gna:|
 z8 B8- | B8 ^A8 | z8 c8 | c4 c4 c4 c4 | (c4 B4) c4 A4 | G8 F4 B4- | B4 B4 E8 | (F8 B8- | %36
w: a\-|* it:|Pa-|ter, in ma- nus|tu\- * as com-|men- do spi\-|* ri- tum|me\- *|
 B4 ^A2 G2) A8 || A8 A4 G4 | F4 E4 D8- | D4 C4 C8 | z4 D4 D4 C4 | B,12 B,4 | ^A,16 |] %43
w: * * * um.|Et in- cli-|na- to ca\-|* pi- te|e- mi- sit|spi- ri-|tum.|
V:3
 c6 B2 B4 | A6 A2 G4 || z8 c8 | e8 B2 c2 d4- | d4 d4 B8 | A4 A4 G8 | ^A8 z4 A4 | ^A4 A4 A4 A4 | %8
w: Te- ne- brae|fac- tae sunt,|dum|cru- ci- fi- xis\-|* sent Je-|sum Ju- dae-|i: et|cir- ca ho- ram|
 B8 d8- | d8 z8 | B12 c4 | d8 c4 B4- | B4 ^A4 d8- | d4 d4 e8 | f8 z4 d4- | d4 e4 (d8 | B8) c8- | %17
w: no- nam,||ex- cla-|ma- vit Je\-|* sus vo\-|* ce ma-|gna: De\-|* us me\-|* us,|
 c8 z4 d4 | c4 c8 d4 | c4 ^d4 e8 | A16 || z16 | z16 | z8 B8 | f12 d4 | =g8 f8 | d4 e4 f8- | f8 f8 | %28
w: * ut|quid me de-|re- li- qui-|sti?|||Ex-|cla- mans|Je- sus|vo- ce ma\-|* gna:|
 z8 B8- | B8 f8 | z8 f8 | f4 f4 f4 ^e4 | (f4 d4) c4 c4 | !courtesy!=e8 ^d4 e4- | e4 e4 c8 | %35
w: a\-|* it:|Pa-|ter, in ma- nus|tu\- * as com-|men- do spi\-|* ri- tum|
 (d6 c2 B8) | f16 || e8 e4 e4 | c4 c4 A8- | A4 A4 A8 | z4 A4 A4 A4 | F12 F4 | F16 |] %43
w: me\- * *|um.|Et in- cli-|na- to ca\-|* pi- te|e- mi- sit|spi- ri-|tum.|
V:4
 A,6 E,2 E,4 | F,6 F,2 C,4 || z4 F,8 A,4 | E,6 F,2 =G,8 | D,8 E,8 | F,4 F,4 C,8 | F,8 z4 F,4 | %7
w: Te- ne- brae|fac- tae sunt,|dum cru-|ci- fi- xis-|sent Je-|sus Ju- dae-|i: et|
 F,4 F,4 F,4 F,4 | E,8 D,8- | D,8- D8- | D4 C4 B,4 ^A,4 | B,8 F,8- | F,8 B,8- | B,4 B,4 A,8 | %14
w: cir- ca ho- ram|no- nam,|* ex\-|* cla- ma- vit|Je- sus|* vo\-|* ce ma-|
 D,8 z4 =G,4- | G,4 E,4 !courtesy!=G,8- | G,8 F,8- | F,8- z4 B,4 | F,4 A,8 F,4 | A,4 F,4 E,8 | %20
w: gna: De\-|* us me\-|* us,|* ut|quid me de-|re- li- qui-|
 D,16 || z16 | z16 | z16 | z16 | z16 | z16 | z16 | z16 | z16 | z16 | z16 | z16 | z16 | z16 | z16 | %36
w: sti?||||||||||||||||
 z16 || A,8 A,4 E,4 | F,4 C,4 D,8- | D,4 A,,4 A,,8 | z4 D,4 D,4 A,,4 | B,,12 B,,4 | F,16 |] %43
w: |Et in- cli-|na- to ca\-|* pi- te|e- mi- sit|spi- ri-|tum.|

